X: 11712
T: El Día De La Xibarte
R: reel
M: 4/4
K: Dmajor
F|:Bddc BAFG|ABcd ecAF|Bddc BAGA|B/c/dcB A3c|
Bddc BAFA|GBcd ecAF|Bddc BAGA|1 B/c/d ce d3 F:|2 B/c/d ce d3 B||
|:dBdB d3B|cdec d3d|fedc dBcB|AGFE F3B|
dBdB d3d|cdef d3d|fedc dcBA|1 GECE D3B:|2 GECE D3||

